icons/yii-dark.svg

<svg xmlns="http://www.w3.org/2000/svg" width="256" height="256" fill="none"><path fill="#282828" d="M196 0H60C26.863 0 0 26.863 0 60v136c0 33.137 26.863 60 60 60h136c33.137 0 60-26.863 60-60V60c0-33.137-26.863-60-60-60"/><path fill="#40B3D8" d="M167.565 155.362c-1.352-17.847-7.109-29.415-9.912-35.972-2.801-6.555-7.109-12.692-7.112-12.682-.008.028-3.879 20.884-10.837 35.974-1.162 2.52-2.704 5.666-4.261 8.2-4.804 8.482-11.775 16.597-15.929 24.821-4.119 8.152-4.884 16.225-4.501 25.402.386 9.229 2.519 18.281 4.566 27.253 7.716-1.664 14.432-4.513 20.242-8.155 15.29-9.586 24.529-24.917 27.154-41.435 0 0 .128-.671.185-1.489 1.184-12.766.793-16.793.405-21.917"/><path fill="#83C933" d="M167.565 155.362c-1.352-17.847-7.108-29.415-9.912-35.972-2.801-6.555-7.109-12.692-7.112-12.682l-.001.005.001-.005-1.028-1.53c-22.548-31.651-65.79-47.455-102.326-32.807-1.76 22.186 8.527 60.358 46.051 71.006 15.171 4.667 27.318 3.456 42.206 7.504l-.001.001s15.133 5.275 23.937 13.184c3.96 3.556 7.926 8.237 7.727 13.805 1.254-13.25.852-17.304.458-22.509"/><path fill="#F18A2A" fill-rule="evenodd" d="M151.179 88.134c-5.332-15.599-3.073-26.051 6.681-40.596 4.653-6.94 12.685-14.99 19.725-19.538 28.403 17.798 38.905 50.95 28.46 81.74-7.602 22.402-14.735 31.796-32.769 54.846 2.102-24.686-6.587-41.801-15.117-60.817-2.171-4.839-5.173-10.346-6.98-15.635" clip-rule="evenodd"/><path fill="#7FB93C" d="M167.107 177.871c.199-5.568-3.766-10.249-7.726-13.805-8.804-7.91-23.937-13.184-23.937-13.184 1.557-2.534 3.1-5.68 4.261-8.2 6.959-15.09 10.829-35.946 10.837-35.974.003-.009 4.31 6.127 7.113 12.682 2.803 6.557 8.558 18.124 9.911 35.972.394 5.205.795 9.259-.459 22.509"/></svg>

<svg width="256" height="256" viewBox="0 0 256 256" fill="none" xmlns="http://www.w3.org/2000/svg">
<path d="M196 0H60C26.8629 0 0 26.8629 0 60V196C0 229.137 26.8629 256 60 256H196C229.137 256 256 229.137 256 196V60C256 26.8629 229.137 0 196 0Z" fill="#282828"/>
<path d="M167.565 155.362C166.213 137.515 160.456 125.947 157.653 119.39C154.852 112.835 150.544 106.698 150.541 106.708C150.533 106.736 146.662 127.592 139.704 142.682C138.542 145.202 137 148.348 135.443 150.882C130.639 159.364 123.668 167.479 119.514 175.703C115.395 183.855 114.63 191.928 115.013 201.105C115.399 210.334 117.532 219.386 119.579 228.358C127.295 226.694 134.011 223.845 139.821 220.203C155.111 210.617 164.35 195.286 166.975 178.768C166.975 178.768 167.103 178.097 167.16 177.279C168.344 164.513 167.953 160.486 167.565 155.362Z" fill="#40B3D8"/>
<path d="M167.565 155.362C166.213 137.515 160.457 125.947 157.653 119.39C154.852 112.835 150.544 106.698 150.541 106.708L150.54 106.713C150.54 106.71 150.541 106.708 150.541 106.708L149.513 105.178C126.965 73.5265 83.7227 57.7233 47.1872 72.3706C45.4279 94.5567 55.7135 132.729 93.2383 143.377C108.409 148.044 120.556 146.833 135.444 150.881C135.443 150.881 135.443 150.882 135.443 150.882C135.443 150.882 150.576 156.157 159.38 164.066C163.34 167.622 167.306 172.303 167.107 177.871C168.361 164.621 167.959 160.567 167.565 155.362Z" fill="#83C933"/>
<path fill-rule="evenodd" clip-rule="evenodd" d="M151.179 88.1339C145.847 72.5352 148.106 62.083 157.86 47.5375C162.513 40.5974 170.545 32.5477 177.585 28C205.988 45.7985 216.49 78.9505 206.045 109.74C198.443 132.142 191.31 141.536 173.276 164.586C175.378 139.9 166.689 122.785 158.159 103.769C155.988 98.9304 152.986 93.4229 151.179 88.1339Z" fill="#F18A2A"/>
<path d="M167.107 177.871C167.306 172.303 163.341 167.622 159.381 164.066C150.577 156.156 135.444 150.882 135.444 150.882C137.001 148.348 138.544 145.202 139.705 142.682C146.664 127.592 150.534 106.736 150.542 106.708C150.545 106.699 154.852 112.835 157.655 119.39C160.458 125.947 166.213 137.514 167.566 155.362C167.96 160.567 168.361 164.621 167.107 177.871Z" fill="#7FB93C"/>
</svg>
